X:1
T:Brander, The
M:C
L:1/8
R:Reel
C:Robert Petrie
B:Davie's Caledonian Repository (Aberdeen, 1829-30, p. 19)
Z:AK/Fiddler’s Companion
K:C
G|~c2 ec ~c2 ec|G2 BG B(dd)e|~c2 ed (cd)ea|gede cA A:|
f|(e/f/g) cg ecgc|BGdG B(dd)f|(e/f/g) cg ecgc|GAcd eccf|
(e/f/g) cg ecgc|BGdG Bddf|afge fdec|Bdgf ec c||

